X: 11127
T: Duke Of Leinster, The
R: reel
M: 4/4
K: Gmajor
|:~G2BG DGBc|dged dBAd|GGdG DEGB|GBAd GEDE|
~G2BG DGBc|dged dBAd|GB~B2 dB~B2|1 dBAd GEDE:|2 GBAd GEDg||
|:dega bg~g2|agbg abge|dega abge|dBAd GEDg|
dega bg~g2|agbg abgf|gd~d2 edge|1 GBAd GEDg:|2 dBAd GEDE||

